src/assets/icons/Cpu.svg

<?xml version="1.0" encoding="utf-8"?>
<svg viewBox="0 0 24 24" fill="none" xmlns="http://www.w3.org/2000/svg">
<path d="M9.18109 10.1811C9.2342 10.128 9.32905 10.0623 9.63166 10.0216C9.95434 9.97823 10.3923 9.97675 11.0698 9.97675H12.9302C13.6077 9.97675 14.0457 9.97823 14.3683 10.0216C14.671 10.0623 14.7658 10.128 14.8189 10.1811C14.872 10.2342 14.9377 10.329 14.9784 10.6317C15.0218 10.9543 15.0233 11.3923 15.0233 12.0698V13.9302C15.0233 14.6077 15.0218 15.0457 14.9784 15.3683C14.9377 15.671 14.872 15.7658 14.8189 15.8189C14.7658 15.872 14.671 15.9377 14.3683 15.9784C14.0457 16.0218 13.6077 16.0233 12.9302 16.0233H11.0698C10.3923 16.0233 9.95434 16.0218 9.63166 15.9784C9.32905 15.9377 9.2342 15.872 9.18109 15.8189C9.12798 15.7658 9.0623 15.671 9.02161 15.3683C8.97823 15.0457 8.97675 14.6077 8.97675 13.9302V12.0698C8.97675 11.3923 8.97823 10.9543 9.02161 10.6317C9.0623 10.329 9.12798 10.2342 9.18109 10.1811Z" fill="currentColor"/>
<path fill-rule="evenodd" clip-rule="evenodd" d="M12 3C12.3853 3 12.6977 3.31236 12.6977 3.69767V6.48884C13.2084 6.48991 13.6717 6.49342 14.0932 6.50495L14.093 6.48837V3.69767C14.093 3.31236 14.4054 3 14.7907 3C15.176 3 15.4884 3.31236 15.4884 3.69767V6.48837C15.4884 6.52487 15.4856 6.56072 15.4802 6.5957C16.4162 6.71067 17.0648 6.94879 17.558 7.44198C18.0512 7.93517 18.2893 8.58381 18.4043 9.51984C18.4393 9.51443 18.4751 9.51163 18.5116 9.51163H21.3023C21.6876 9.51163 22 9.82399 22 10.2093C22 10.5946 21.6876 10.907 21.3023 10.907H18.5116L18.495 10.9068C18.5066 11.3283 18.5106 11.7916 18.5116 12.3023H21.3023C21.6876 12.3023 22 12.6147 22 13C22 13.3853 21.6876 13.6977 21.3023 13.6977L18.5112 13.6977C18.5101 14.2084 18.5066 14.6717 18.495 15.0932L18.5116 15.093H21.3023C21.6876 15.093 22 15.4054 22 15.7907C22 16.176 21.6876 16.4884 21.3023 16.4884H18.5116C18.4751 16.4884 18.4393 16.4856 18.4043 16.4802C18.2893 17.4162 18.0512 18.0648 17.558 18.558C17.0648 19.0512 16.4162 19.2893 15.4802 19.4043C15.4856 19.4393 15.4884 19.4751 15.4884 19.5116V22.3023C15.4884 22.6876 15.176 23 14.7907 23C14.4054 23 14.093 22.6876 14.093 22.3023V19.5116L14.0932 19.495C13.6717 19.5066 13.2084 19.5106 12.6977 19.5116V22.3023C12.6977 22.6876 12.3853 23 12 23C11.6147 23 11.3023 22.6876 11.3023 22.3023L11.3023 19.5112C10.7916 19.5101 10.3283 19.5066 9.90678 19.495L9.90698 19.5116V22.3023C9.90698 22.6876 9.59462 23 9.2093 23C8.82399 23 8.51163 22.6876 8.51163 22.3023V19.5116C8.51163 19.4751 8.51443 19.4393 8.51984 19.4043C7.58381 19.2893 6.93517 19.0512 6.44198 18.558C5.94879 18.0648 5.71067 17.4162 5.5957 16.4802C5.56071 16.4856 5.52487 16.4884 5.48837 16.4884H2.69767C2.31236 16.4884 2 16.176 2 15.7907C2 15.4054 2.31236 15.093 2.69767 15.093H5.48837L5.50495 15.0932C5.49342 14.6717 5.48944 14.2084 5.48837 13.6977H2.69767C2.31236 13.6977 2 13.3853 2 13C2 12.6147 2.31236 12.3023 2.69767 12.3023L5.48884 12.3023C5.48991 11.7916 5.49342 11.3283 5.50495 10.9068L5.48837 10.907H2.69767C2.31236 10.907 2 10.5946 2 10.2093C2 9.82399 2.31236 9.51163 2.69767 9.51163H5.48837C5.52487 9.51163 5.56071 9.51443 5.5957 9.51984C5.71067 8.58381 5.94879 7.93517 6.44198 7.44198C6.93517 6.94879 7.58381 6.71067 8.51984 6.5957C8.51443 6.56072 8.51163 6.52487 8.51163 6.48837V3.69767C8.51163 3.31236 8.82399 3 9.2093 3C9.59462 3 9.90698 3.31236 9.90698 3.69767V6.48837L9.90678 6.50495C10.3283 6.49342 10.7916 6.48944 11.3023 6.48837V3.69767C11.3023 3.31236 11.6147 3 12 3ZM11.0238 8.5814C10.4054 8.58136 9.87247 8.58133 9.44573 8.63871C8.98839 8.70019 8.55001 8.83885 8.19443 9.19443C7.83885 9.55001 7.70019 9.98839 7.63871 10.4457C7.58133 10.8725 7.58136 11.4054 7.5814 12.0238V13.9762C7.58136 14.5946 7.58133 15.1275 7.63871 15.5543C7.70019 16.0116 7.83885 16.45 8.19443 16.8056C8.55001 17.1612 8.98839 17.2998 9.44573 17.3613C9.87247 17.4187 10.4054 17.4186 11.0238 17.4186H12.9762C13.5946 17.4186 14.1275 17.4187 14.5543 17.3613C15.0116 17.2998 15.45 17.1612 15.8056 16.8056C16.1612 16.45 16.2998 16.0116 16.3613 15.5543C16.4187 15.1275 16.4186 14.5946 16.4186 13.9762V12.0238C16.4186 11.4054 16.4187 10.8725 16.3613 10.4457C16.2998 9.98839 16.1612 9.55001 15.8056 9.19443C15.45 8.83885 15.0116 8.70019 14.5543 8.63871C14.1275 8.58133 13.5947 8.58136 12.9762 8.5814H11.0238Z" fill="currentColor"/>
</svg>

<?xml version="1.0" encoding="utf-8"?>
<svg xmlns="http://www.w3.org/2000/svg" fill="none" viewBox="0 0 24 24"><path fill="currentColor" d="M9.181 10.181c.053-.053.148-.119.45-.16.323-.043.761-.044 1.439-.044h1.86c.678 0 1.116.001 1.438.045.303.04.398.106.45.16.054.052.12.147.16.45.044.322.045.76.045 1.438v1.86c0 .678-.001 1.116-.045 1.438-.04.303-.106.398-.16.45-.052.054-.147.12-.45.16-.322.044-.76.045-1.438.045h-1.86c-.678 0-1.116-.001-1.438-.045-.303-.04-.398-.106-.45-.16-.054-.052-.12-.147-.16-.45-.044-.322-.045-.76-.045-1.438v-1.86c0-.678.001-1.116.045-1.438.04-.303.106-.398.16-.45"/><path fill="currentColor" fill-rule="evenodd" d="M12 3c.385 0 .698.312.698.698v2.79q.764.001 1.395.017V3.698a.698.698 0 0 1 1.395 0v2.79a1 1 0 0 1-.008.108c.936.115 1.585.353 2.078.846s.731 1.142.846 2.078a1 1 0 0 1 .108-.008h2.79a.698.698 0 0 1 0 1.395h-2.807q.017.63.017 1.395h2.79a.698.698 0 0 1 0 1.396h-2.79q-.001.764-.017 1.395h2.807a.698.698 0 0 1 0 1.395h-2.79a1 1 0 0 1-.108-.008c-.115.936-.353 1.585-.846 2.078s-1.142.731-2.078.846q.009.053.008.108v2.79a.698.698 0 0 1-1.395 0v-2.807q-.63.017-1.395.017v2.79a.698.698 0 0 1-1.396 0v-2.79a56 56 0 0 1-1.395-.017v2.807a.698.698 0 0 1-1.395 0v-2.79q0-.056.008-.108c-.936-.115-1.585-.353-2.078-.846s-.731-1.142-.846-2.078a1 1 0 0 1-.108.008h-2.79a.698.698 0 0 1 0-1.395h2.807a56 56 0 0 1-.017-1.395h-2.79a.698.698 0 0 1 0-1.396h2.79q.001-.764.017-1.395H2.698a.698.698 0 0 1 0-1.395h2.79q.056 0 .108.008c.115-.936.353-1.585.846-2.078s1.142-.731 2.078-.846a1 1 0 0 1-.008-.108v-2.79a.698.698 0 0 1 1.395 0v2.807q.63-.017 1.395-.017v-2.79c0-.386.313-.698.698-.698m-.976 5.581c-.619 0-1.152 0-1.578.058-.458.061-.896.2-1.252.555-.355.356-.494.794-.555 1.252-.058.427-.058.96-.058 1.578v1.952c0 .619 0 1.151.058 1.578.061.458.2.896.555 1.252.356.355.794.494 1.252.555.426.058.96.058 1.578.058h1.952c.619 0 1.151 0 1.578-.058.458-.061.896-.2 1.252-.555.355-.356.494-.794.555-1.252.058-.427.058-.96.058-1.578v-1.952c0-.619 0-1.151-.058-1.578-.061-.458-.2-.896-.555-1.252-.356-.355-.794-.494-1.252-.555-.427-.058-.96-.058-1.578-.058z" clip-rule="evenodd"/></svg>
